assets/img/components/combobox.svg

<svg width="272" height="143" viewBox="0 0 272 143" fill="none" xmlns="http://www.w3.org/2000/svg">
<rect width="272" height="143" rx="8" fill="#EFF6FB"/>
<g filter="url(#filter0_dd_141_674)">
<rect x="22.9863" y="49.7612" width="227" height="73.2388" rx="5" fill="white"/>
</g>
<path d="M183.849 17L33.1512 17.575C27.5449 17.575 23 21.7609 23 26.9244V35.6506C23 40.8141 27.5449 45 33.1512 45L183.849 44.425C189.455 44.425 194 40.2391 194 35.0756V26.3494C194 21.1859 189.455 17 183.849 17Z" fill="white"/>
<path d="M183.849 17.5C189.218 17.5 193.5 21.5001 193.5 26.3496V35.0752C193.5 39.9247 189.218 43.9248 183.849 43.9248H183.847L33.1504 44.499C27.781 44.4986 23.5 40.4996 23.5 35.6504V26.9248C23.5 22.0753 27.7816 18.0752 33.1514 18.0752H33.1533L183.849 17.5Z" stroke="#445577" stroke-opacity="0.666667"/>
<path d="M33 31C33 29.3431 34.3431 28 36 28H117C118.657 28 120 29.3431 120 31C120 32.6569 118.657 34 117 34H36C34.3431 34 33 32.6569 33 31Z" fill="#457AA5"/>
<path d="M23 76H250V100H23V76Z" fill="#EBEBE9"/>
<path d="M33 88C33 86.3431 34.3431 85 36 85H170.5C172.157 85 173.5 86.3431 173.5 88C173.5 89.6569 172.157 91 170.5 91H36C34.3431 91 33 89.6569 33 88Z" fill="#A7A9AB"/>
<path d="M33 111C33 109.343 34.3431 108 36 108H146C147.657 108 149 109.343 149 111C149 112.657 147.657 114 146 114H36C34.3431 114 33 112.657 33 111Z" fill="#A7A9AB"/>
<path d="M33 63C33 61.3431 34.3431 60 36 60H117C118.657 60 120 61.3431 120 63C120 64.6569 118.657 66 117 66H36C34.3431 66 33 64.6569 33 63Z" fill="#A7A9AB"/>
<path d="M157.116 26.8921C157.359 26.8921 157.574 26.9726 157.742 27.1411C157.911 27.3097 157.991 27.5246 157.991 27.7671C157.991 28.0094 157.911 28.2237 157.742 28.3921L154.634 31.4995L157.742 34.6079C157.911 34.7763 157.991 34.9906 157.991 35.2329C157.991 35.4754 157.911 35.6903 157.742 35.8589C157.574 36.0274 157.359 36.1079 157.116 36.1079C156.874 36.1078 156.66 36.0273 156.491 35.8589L153.383 32.7505L150.275 35.8589C150.107 36.0273 149.893 36.1078 149.65 36.1079C149.408 36.1079 149.193 36.0274 149.024 35.8589C148.856 35.6903 148.775 35.4754 148.775 35.2329C148.775 34.9907 148.856 34.7763 149.024 34.6079L152.132 31.4995L149.024 28.3921C148.856 28.2237 148.775 28.0093 148.775 27.7671C148.775 27.5246 148.856 27.3097 149.024 27.1411C149.193 26.9726 149.408 26.8921 149.65 26.8921C149.893 26.8922 150.107 26.9727 150.275 27.1411L153.383 30.2485L156.491 27.1411C156.66 26.9727 156.874 26.8922 157.116 26.8921Z" fill="#457AA5" stroke="#457AA5" stroke-width="0.45"/>
<line x1="165.267" y1="23.5" x2="165.267" y2="39.5" stroke="#A7A9AB" stroke-linecap="round"/>
<path d="M178.268 29.4652L173.72 34.0123C173.507 34.226 173.235 34.3329 172.904 34.3329C172.574 34.3329 172.302 34.226 172.088 34.0123C171.874 33.7985 171.768 33.5265 171.768 33.1961C171.768 32.8658 171.874 32.5937 172.088 32.38L177.451 27.0168C177.685 26.7836 177.957 26.667 178.268 26.667C178.578 26.667 178.851 26.7836 179.084 27.0168L184.447 32.38C184.661 32.5937 184.768 32.8658 184.768 33.1961C184.768 33.5265 184.661 33.7985 184.447 34.0123C184.233 34.226 183.961 34.3329 183.631 34.3329C183.3 34.3329 183.028 34.226 182.815 34.0123L178.268 29.4652Z" fill="#457AA5"/>
<defs>
<filter id="filter0_dd_141_674" x="17.9863" y="48.7612" width="237" height="83.2388" filterUnits="userSpaceOnUse" color-interpolation-filters="sRGB">
<feFlood flood-opacity="0" result="BackgroundImageFix"/>
<feColorMatrix in="SourceAlpha" type="matrix" values="0 0 0 0 0 0 0 0 0 0 0 0 0 0 0 0 0 0 127 0" result="hardAlpha"/>
<feMorphology radius="1" operator="erode" in="SourceAlpha" result="effect1_dropShadow_141_674"/>
<feOffset dy="4"/>
<feGaussianBlur stdDeviation="3"/>
<feComposite in2="hardAlpha" operator="out"/>
<feColorMatrix type="matrix" values="0 0 0 0 0.105882 0 0 0 0 0.105882 0 0 0 0 0.105882 0 0 0 0.01 0"/>
<feBlend mode="normal" in2="BackgroundImageFix" result="effect1_dropShadow_141_674"/>
<feColorMatrix in="SourceAlpha" type="matrix" values="0 0 0 0 0 0 0 0 0 0 0 0 0 0 0 0 0 0 127 0" result="hardAlpha"/>
<feMorphology radius="1" operator="erode" in="SourceAlpha" result="effect2_dropShadow_141_674"/>
<feOffset dy="4"/>
<feGaussianBlur stdDeviation="3"/>
<feComposite in2="hardAlpha" operator="out"/>
<feColorMatrix type="matrix" values="0 0 0 0 0.105882 0 0 0 0 0.105882 0 0 0 0 0.105882 0 0 0 0.1 0"/>
<feBlend mode="normal" in2="effect1_dropShadow_141_674" result="effect2_dropShadow_141_674"/>
<feBlend mode="normal" in="SourceGraphic" in2="effect2_dropShadow_141_674" result="shape"/>
</filter>
</defs>
</svg>

<svg xmlns="http://www.w3.org/2000/svg" width="272" height="143" fill="none" viewBox="0 0 272 143"><rect width="272" height="143" fill="#eff6fb" rx="8"/><g filter="url(#a)"><rect width="227" height="73.239" x="22.986" y="49.761" fill="#fff" rx="5"/></g><path fill="#fff" d="m183.849 17-150.698.575c-5.606 0-10.151 4.186-10.151 9.35v8.726C23 40.814 27.545 45 33.151 45l150.698-.575c5.606 0 10.151-4.186 10.151-9.35V26.35c0-5.163-4.545-9.349-10.151-9.349"/><path stroke="#457" stroke-opacity=".667" d="M183.849 17.5c5.369 0 9.651 4 9.651 8.85v8.725c0 4.85-4.282 8.85-9.651 8.85h-.002l-150.697.574c-5.369 0-9.65-4-9.65-8.849v-8.725c0-4.85 4.282-8.85 9.651-8.85h.002z"/><path fill="#457aa5" d="M33 31a3 3 0 0 1 3-3h81a3 3 0 1 1 0 6H36a3 3 0 0 1-3-3"/><path fill="#ebebe9" d="M23 76h227v24H23z"/><path fill="#a7a9ab" d="M33 88a3 3 0 0 1 3-3h134.5a3 3 0 1 1 0 6H36a3 3 0 0 1-3-3M33 111a3 3 0 0 1 3-3h110a3 3 0 1 1 0 6H36a3 3 0 0 1-3-3M33 63a3 3 0 0 1 3-3h81a3 3 0 1 1 0 6H36a3 3 0 0 1-3-3"/><path fill="#457aa5" stroke="#457aa5" stroke-width=".45" d="M157.116 26.892a.855.855 0 0 1 .875.875c0 .242-.08.457-.249.625l-3.108 3.108 3.108 3.108a.85.85 0 0 1 .249.625c0 .242-.08.457-.249.626a.86.86 0 0 1-.626.249.86.86 0 0 1-.625-.25l-3.108-3.107-3.108 3.108a.85.85 0 0 1-.625.249.86.86 0 0 1-.626-.25.86.86 0 0 1-.249-.625c0-.242.081-.457.249-.625l3.108-3.108-3.108-3.108a.86.86 0 0 1-.249-.625.86.86 0 0 1 .249-.626.86.86 0 0 1 .626-.249c.243 0 .457.08.625.25l3.108 3.107 3.108-3.108a.86.86 0 0 1 .625-.249Z"/><path stroke="#a7a9ab" stroke-linecap="round" d="M165.267 23.5v16"/><path fill="#457aa5" d="m178.268 29.465-4.548 4.547q-.32.32-.816.32t-.816-.32-.32-.816.32-.816l5.363-5.363q.35-.35.817-.35t.816.35l5.363 5.363q.321.321.321.816t-.321.816q-.321.32-.816.32-.496 0-.816-.32z"/><defs><filter id="a" width="237" height="83.239" x="17.986" y="48.761" color-interpolation-filters="sRGB" filterUnits="userSpaceOnUse"><feFlood flood-opacity="0" result="BackgroundImageFix"/><feColorMatrix in="SourceAlpha" result="hardAlpha" values="0 0 0 0 0 0 0 0 0 0 0 0 0 0 0 0 0 0 127 0"/><feMorphology in="SourceAlpha" radius="1" result="effect1_dropShadow_141_674"/><feOffset dy="4"/><feGaussianBlur stdDeviation="3"/><feComposite in2="hardAlpha" operator="out"/><feColorMatrix values="0 0 0 0 0.105882 0 0 0 0 0.105882 0 0 0 0 0.105882 0 0 0 0.01 0"/><feBlend in2="BackgroundImageFix" result="effect1_dropShadow_141_674"/><feColorMatrix in="SourceAlpha" result="hardAlpha" values="0 0 0 0 0 0 0 0 0 0 0 0 0 0 0 0 0 0 127 0"/><feMorphology in="SourceAlpha" radius="1" result="effect2_dropShadow_141_674"/><feOffset dy="4"/><feGaussianBlur stdDeviation="3"/><feComposite in2="hardAlpha" operator="out"/><feColorMatrix values="0 0 0 0 0.105882 0 0 0 0 0.105882 0 0 0 0 0.105882 0 0 0 0.1 0"/><feBlend in2="effect1_dropShadow_141_674" result="effect2_dropShadow_141_674"/><feBlend in="SourceGraphic" in2="effect2_dropShadow_141_674" result="shape"/></filter></defs></svg>
